X:33
T:Kulkurin Valssi  (Hobo's Waltz)
M:3/4
L:1/4
Q:1/4=160
R:waltz
K:D
|: "D" D F>A | B A>D | "A7" F G>C | E2 C |
A, C>E | A A>G | "D" (F3 | F) z F/2F/2 | !
F D>D | E D>C | "G" B, G>G | G2 B,/2B,/2 |
"A7" A, A,>A, | A, B,>C | "D" (D3 | D) z A, | !
D D>D | D F A | "G" B3 | "D" A2 F |
"A7" E E>E | E D E | "D" (F3 | F) z A,/2A,/2 | !
D D>D | D F A | "G" d3 | B2 G/2G/2 |
"D" F A>A | "A7" A G E | "D" (D3 |[1 D) z z :|[2 D) z F/2G/2 || !
"D" A A A/2G/2 | F F F/2A/2 | "A7" G G G/2F/2 | E E E/2F/2 |
G G G/2F/2 | E G B | "D" A A A/2G/2 | F2 F/2G/2 | !
A A A/2G/2 | F A d | "G" B B B/2A/2 | G2 B |
"A7" A c>B | A G E | "D" (D3 | D) z z ||
